X: 35954
T: Sarah Kelly's
R: reel
M: 4/4
K: Cmajor
|:EFED CEAc|BGFE F2EF|DCB,C DEFD|GFDG, (3A,B,C DF|
E3D CEAc|BGFE F2EF|DEFD GB (3ABc|1 BGFD C3E:|2 BGFD C2dc||
|:BDGB c3d|BGG2 DEFD|BDGc cBGF|DEFD (3A,B,C Dc|
BccB c3d|BGFD GFDC|(3A,B,C DE F2dc|1 BGFD CGdc:|2 BGFD CDG,C||
|:B,CDE F3E|FDDG FEDG,|(3A,B,C DE FDdc|BGGF DEFD|
G2EG FEDC|(3A,B,C DE FAdc|BGFD GFDC|DGFD CDG,C:|

